X: 1397
T: An Slán ína hAoibh
R: reel
M: 4/4
K: Gmajor
K: G Lydian
|:"G" DFGA cdeA|BdcF AdcA|"D" GFGA BAGD|EFGD BAGE:|
|:"G" Ddde fede|"Em" dBFG BdcA|"G" Bdde fede|"A" cAGA A2 GF:|
"G" DBAF GAGD|"Em" EFAF GABE|"G" Gdcd ecdB|"A" cAGF BFGE|
"C" DBAF GAGD|"Am" EFAF GABE|"G" Gdcd ecdB|"A" cABF G2 AE||

